X: 3018
T: Battle Of The Somme, The
R: slip jig
M: 9/8
K: Dmajor
f<af d3 d2 c|e>dG B3 A2 d|B<GB A3 d2 A|f<af e3- e2 A|
faf d3 d>cd|e>dG B3 A2 A|B<GB A3 f2 A|e>fe d3- d2:|
d>cd e3 A2 e|e>fg f<af d3|f>ef g3 A2 g|f<af e3- e3|
f<af d3- dcd|e>dG B3 A2 B|B<GB A3 f3|e>fe d3- d2:|

